static/eniac_logo_alt.svg

<?xml version="1.0" encoding="UTF-8" standalone="no"?>
<svg
   xml:space="preserve"
   width="48"
   height="48"
   viewBox="0 0 48 48"
   version="1.1"
   id="svg1"
   sodipodi:docname="eniac_logo_alt.svg"
   inkscape:version="1.4 (86a8ad7, 2024-10-11)"
   xmlns:inkscape="http://www.inkscape.org/namespaces/inkscape"
   xmlns:sodipodi="http://sodipodi.sourceforge.net/DTD/sodipodi-0.dtd"
   xmlns="http://www.w3.org/2000/svg"
   xmlns:svg="http://www.w3.org/2000/svg"><defs
     id="defs1"><inkscape:path-effect
       effect="fill_between_many"
       id="path-effect7"
       is_visible="true"
       lpeversion="1.2"
       linkedpaths=""
       method="d"
       join="true"
       close="true"
       autoreverse="true" /><inkscape:path-effect
       effect="join_type"
       id="path-effect5"
       is_visible="true"
       lpeversion="1"
       linecap_type="butt"
       line_width="0.35"
       linejoin_type="extrp_arc"
       miter_limit="50"
       attempt_force_join="true" /><inkscape:path-effect
       effect="fillet_chamfer"
       id="path-effect1"
       is_visible="true"
       lpeversion="1"
       nodesatellites_param="F,0,0,1,0,0,0,1 @ F,0,0,1,0,0,0,1 @ F,0,0,1,0,0,0,1 @ F,0,0,1,0,0,0,1 @ F,0,0,1,0,0,0,1 @ F,0,0,1,0,0,0,1 @ F,0,0,1,0,0,0,1 @ F,0,0,1,0,0,0,1 @ F,0,0,1,0,0,0,1 @ F,0,0,1,0,0,0,1 @ F,0,0,1,0,0,0,1 @ F,0,0,1,0,0,0,1 @ F,0,0,1,0,0,0,1 @ F,0,0,1,0,0,0,1 @ F,0,0,1,0,0,0,1 @ F,0,0,1,0,0,0,1 @ F,0,0,1,0,0,0,1 @ F,0,0,1,0,0,0,1 @ F,0,0,1,0,0,0,1 @ F,0,0,1,0,0,0,1 @ F,0,0,1,0,0,0,1 @ F,0,0,1,0,0,0,1 @ F,0,0,1,0,0,0,1 @ F,0,0,1,0,0,0,1"
       radius="0"
       unit="px"
       method="auto"
       mode="F"
       chamfer_steps="1"
       flexible="false"
       use_knot_distance="true"
       apply_no_radius="true"
       apply_with_radius="true"
       only_selected="false"
       hide_knots="false" /><inkscape:path-effect
       effect="fill_between_many"
       id="path-effect21"
       is_visible="true"
       lpeversion="1.2"
       linkedpaths=""
       method="d"
       join="true"
       close="true"
       autoreverse="true" /><inkscape:path-effect
       effect="slice"
       start_point="13.093889,23.945363"
       end_point="33.702807,23.945363"
       center_point="23.398348,23.945363"
       id="path-effect20"
       is_visible="true"
       lpeversion="1.2"
       lpesatellites=""
       allow_transforms="true" /><inkscape:path-effect
       effect="fill_between_many"
       id="path-effect19"
       is_visible="true"
       lpeversion="1.2"
       linkedpaths=""
       method="bsplinespiro"
       join="true"
       close="true"
       autoreverse="true" /><inkscape:path-effect
       effect="join_type"
       id="path-effect3"
       is_visible="true"
       lpeversion="1"
       linecap_type="butt"
       line_width="0.35"
       linejoin_type="extrp_arc"
       miter_limit="50"
       attempt_force_join="true" /><inkscape:path-effect
       effect="fillet_chamfer"
       id="path-effect2"
       is_visible="true"
       lpeversion="1"
       nodesatellites_param="F,0,0,1,0,0,0,1 @ F,0,0,1,0,0,0,1 @ F,0,0,1,0,0,0,1 @ F,0,0,1,0,0,0,1 @ F,0,0,1,0,0,0,1 @ F,0,0,1,0,0,0,1 @ F,0,0,1,0,0,0,1 @ F,0,0,1,0,0,0,1 @ F,0,0,1,0,0,0,1 @ F,0,0,1,0,0,0,1 @ F,0,0,1,0,0,0,1 @ F,0,0,1,0,0,0,1 @ F,0,0,1,0,0,0,1 @ F,0,0,1,0,0,0,1 @ F,0,0,1,0,0,0,1 @ F,0,0,1,0,0,0,1 @ F,0,0,1,0,0,0,1 @ F,0,0,1,0,0,0,1 @ F,0,0,1,0,0,0,1 @ F,0,0,1,0,0,0,1 @ F,0,0,1,0,0,0,1 @ F,0,0,1,0,0,0,1 @ F,0,0,1,0,0,0,1 @ F,0,0,1,0,0,0,1 @ F,0,0,1,0,0,0,1 @ F,0,0,1,0,0,0,1"
       radius="0"
       unit="px"
       method="bezier"
       mode="F"
       chamfer_steps="1"
       flexible="false"
       use_knot_distance="true"
       apply_no_radius="true"
       apply_with_radius="true"
       only_selected="false"
       hide_knots="false" /><inkscape:path-effect
       effect="fillet_chamfer"
       id="path-effect1-5"
       is_visible="true"
       lpeversion="1"
       nodesatellites_param="F,0,0,1,0,0,0,1 @ F,0,0,1,0,0,0,1 @ F,0,0,1,0,0,0,1 @ F,0,0,1,0,0,0,1 @ F,0,0,1,0,0,0,1 @ F,0,0,1,0,0,0,1 @ F,0,0,1,0,0,0,1 @ F,0,0,1,0,0,0,1 @ F,0,0,1,0,0,0,1 @ F,0,0,1,0,0,0,1 @ F,0,0,1,0,0,0,1 @ F,0,0,1,0,0,0,1 @ F,0,0,1,0,0,0,1 @ F,0,0,1,0,0,0,1 @ F,0,0,1,0,0,0,1 @ F,0,0,1,0,0,0,1 @ F,0,0,1,0,0,0,1 @ F,0,0,1,0,0,0,1 @ F,0,0,1,0,0,0,1 @ F,0,0,1,0,0,0,1 @ F,0,0,1,0,0,0,1 @ F,0,0,1,0,0,0,1 @ F,0,0,1,0,0,0,1 @ F,0,0,1,0,0,0,1"
       radius="0"
       unit="px"
       method="auto"
       mode="F"
       chamfer_steps="1"
       flexible="false"
       use_knot_distance="true"
       apply_no_radius="true"
       apply_with_radius="true"
       only_selected="false"
       hide_knots="false" /></defs><sodipodi:namedview
     id="namedview1"
     pagecolor="#ffffff"
     bordercolor="#000000"
     borderopacity="0.25"
     inkscape:showpageshadow="2"
     inkscape:pageopacity="0.0"
     inkscape:pagecheckerboard="0"
     inkscape:deskcolor="#d1d1d1"
     inkscape:zoom="11.534679"
     inkscape:cx="20.46004"
     inkscape:cy="28.479335"
     inkscape:window-width="1920"
     inkscape:window-height="1001"
     inkscape:window-x="-9"
     inkscape:window-y="-9"
     inkscape:window-maximized="1"
     inkscape:current-layer="svg1" /><path
     id="path23"
     style="display:inline;stroke-width:0.15"
     d="M 23.880859 5.7207031 C 22.11367 5.7249887 20.40195 6.144564 18.972656 6.8808594 C 15.5542 8.6418646 13.578961 10.665511 14.283203 16.519531 C 14.688686 19.890109 17.524691 21.439857 20.027344 22.259766 C 19.919138 22.691537 19.774724 23.031936 19.607422 23.3125 C 19.389466 23.67801 19.130223 23.94869 18.84375 24.195312 C 18.280137 24.680523 17.583669 25.08921 17.023438 25.919922 L 17.025391 25.919922 C 17.023073 25.921442 17.01834 25.924585 17.009766 25.9375 C 17.013766 25.9314 17.017464 25.925932 17.021484 25.919922 C 17.020084 25.920537 17.019278 25.921075 17.017578 25.921875 C 17.015678 25.922662 17.014019 25.924881 17.011719 25.925781 C 16.996439 25.931581 16.971873 25.937753 16.945312 25.945312 C 16.894492 25.959782 16.769797 25.988022 16.695312 26.0625 C 16.690013 26.0678 16.617973 26.128459 16.585938 26.162109 C 16.533078 26.217629 16.45738 26.325307 16.501953 26.458984 C 16.654934 26.917927 17.125214 27.111896 17.576172 27.21875 C 17.798998 27.27155 18.037616 27.30715 18.242188 27.339844 C 18.446424 27.372474 18.626903 27.405255 18.75 27.445312 C 18.78137 27.458772 18.799972 27.479268 18.826172 27.523438 C 18.853562 27.569608 18.920432 27.740748 18.998047 27.818359 C 19.10423 27.924543 19.326363 27.908203 19.355469 27.908203 C 20.146927 27.908203 20.492378 27.408001 20.939453 26.953125 C 21.232918 26.65454 21.572346 26.365429 22.140625 26.179688 C 23.238662 25.940261 24.435079 25.33519 25.544922 24.640625 C 25.840719 24.915627 26.131777 25.205865 26.382812 25.519531 C 26.915067 26.184577 27.25191 26.895284 27.130859 27.537109 C 26.817246 29.199928 25.391983 30.312309 23.621094 31.140625 C 21.850204 31.968941 19.759193 32.497047 18.199219 33.009766 C 14.95942 34.074595 14.230972 38.192985 17.470703 40.896484 C 20.656953 43.555354 26.655291 43.562543 29.078125 41.992188 C 30.433246 41.113869 31.242542 40.833651 32.121094 40.804688 C 32.379794 40.796188 32.598735 40.791803 32.767578 40.789062 C 33.020843 40.784962 33.019366 40.784556 33.160156 40.785156 A 3211.0788 3211.0788 0 0 0 34.40625 40.791016 A 23.532918 23.532918 0 0 0 33.205078 40.441406 C 32.901712 40.361746 32.600846 40.28852 32.396484 40.246094 C 28.551424 39.447848 26.548852 40.363013 25.035156 40.638672 C 24.657355 40.707472 24.312506 40.737056 23.974609 40.697266 C 23.425085 40.632556 22.718036 40.383181 22.054688 40.021484 C 21.39134 39.659788 20.770406 39.184836 20.373047 38.685547 C 20.108141 38.352687 19.945143 38.011901 19.917969 37.693359 C 19.904379 37.534089 19.923369 37.380681 19.980469 37.226562 C 20.037579 37.072445 20.134211 36.91773 20.28125 36.763672 C 20.419783 36.618526 20.606947 36.528411 20.875 36.460938 C 21.089442 36.406957 21.352054 36.369777 21.660156 36.330078 C 22.897378 36.170654 24.836119 35.973795 27.630859 34.314453 C 33.147929 31.038768 33.245278 26.691902 32.878906 25.371094 C 32.695474 24.709805 32.174854 22.597166 30.541016 20.857422 C 34.737369 17.688843 35.427081 13.776972 32.123047 9.625 C 29.923623 6.8611223 26.826175 5.7135605 23.880859 5.7207031 z M 23.283203 11.015625 C 23.480407 11.014607 23.684443 11.021718 23.894531 11.037109 C 25.356424 11.144208 26.348084 11.437111 27.007812 11.8125 C 27.667541 12.187889 27.998676 12.640489 28.162109 13.099609 C 28.325542 13.558729 28.316727 14.032321 28.255859 14.433594 C 28.194989 14.834866 28.085492 15.144045 28.048828 15.339844 C 28.028838 15.446579 27.957178 15.613983 27.839844 15.808594 C 27.663847 16.100509 27.387542 16.456537 27.048828 16.822266 C 26.625435 17.279426 26.104204 17.753755 25.556641 18.15625 C 25.447571 18.23642 25.337158 18.311051 25.226562 18.384766 C 25.141478 18.441477 25.056116 18.496152 24.970703 18.548828 C 25.056116 18.496153 25.141478 18.441477 25.226562 18.384766 C 24.768515 18.342526 24.285906 18.324344 23.771484 18.339844 C 22.006387 18.393004 20.732876 17.919913 19.910156 17.207031 C 19.087437 16.49415 18.709074 15.538096 18.744141 14.587891 C 18.779211 13.637685 19.230255 12.693772 20.087891 12.013672 C 20.838321 11.418584 21.902776 11.022749 23.283203 11.015625 z M 28.0625 16.113281 C 27.946073 16.291762 27.805391 16.481797 27.646484 16.673828 C 27.805392 16.481797 27.946073 16.291762 28.0625 16.113281 z M 24.90625 18.587891 C 24.842218 18.626453 24.778581 18.66394 24.714844 18.699219 C 24.577779 18.775084 24.440823 18.843519 24.306641 18.904297 C 24.172458 18.965075 24.04105 19.018195 23.912109 19.060547 C 24.04105 19.018197 24.172458 18.965075 24.306641 18.904297 C 24.440823 18.843519 24.577779 18.775084 24.714844 18.699219 C 24.778248 18.664123 24.842553 18.626236 24.90625 18.587891 z M 25.710938 18.794922 C 25.840651 18.813586 25.968929 18.834315 26.09375 18.857422 C 25.968929 18.834315 25.840651 18.813586 25.710938 18.794922 z M 26.460938 18.933594 C 26.580943 18.960954 26.69723 18.990058 26.8125 19.021484 C 26.92777 19.05291 27.041732 19.08579 27.152344 19.121094 C 27.262956 19.156397 27.37053 19.195382 27.476562 19.234375 C 27.582595 19.273368 27.685579 19.312974 27.787109 19.355469 C 27.88864 19.397964 27.98883 19.442473 28.085938 19.488281 C 28.181526 19.533373 28.27571 19.580899 28.367188 19.628906 C 28.27571 19.580899 28.181526 19.533373 28.085938 19.488281 C 27.98883 19.442473 27.88864 19.397964 27.787109 19.355469 C 27.685579 19.312974 27.582595 19.273368 27.476562 19.234375 C 27.37053 19.195382 27.262956 19.156397 27.152344 19.121094 C 27.041732 19.08579 26.92777 19.05291 26.8125 19.021484 C 26.69723 18.990058 26.580943 18.960954 26.460938 18.933594 z M 23.548828 19.669922 C 23.359959 19.790663 23.132062 19.940952 22.886719 20.107422 C 22.641375 20.273892 22.378585 20.456545 22.119141 20.640625 C 22.378585 20.456545 22.641375 20.273892 22.886719 20.107422 C 23.132062 19.940951 23.359959 19.790663 23.548828 19.669922 z M 29.371094 20.265625 C 29.447204 20.323286 29.521211 20.381835 29.59375 20.441406 C 29.521211 20.381835 29.447204 20.323286 29.371094 20.265625 z M 20.183594 21.943359 C 20.267662 21.970163 20.351513 21.99561 20.435547 22.021484 C 20.351419 21.995579 20.267758 21.970196 20.183594 21.943359 z M 21.087891 22.210938 C 21.301024 22.269317 21.510293 22.323133 21.710938 22.373047 C 21.510293 22.323133 21.301024 22.269317 21.087891 22.210938 z M 20.160156 22.970703 C 20.123277 23.061904 20.085505 23.149735 20.044922 23.232422 C 20.004339 23.315108 19.961887 23.393716 19.917969 23.46875 C 19.961887 23.393716 20.004339 23.315108 20.044922 23.232422 C 20.085505 23.149735 20.123277 23.061904 20.160156 22.970703 z M 27.113281 23.132812 C 26.957116 23.250091 26.79657 23.369122 26.630859 23.488281 C 26.79657 23.369122 26.957116 23.250091 27.113281 23.132812 z M 24.488281 23.75 C 24.607889 23.84287 24.736347 23.944077 24.869141 24.052734 C 25.001934 24.161392 25.138658 24.277067 25.277344 24.398438 C 25.138658 24.277067 25.001934 24.161392 24.869141 24.052734 C 24.736347 23.944077 24.607889 23.84287 24.488281 23.75 z M 26.121094 23.845703 C 25.94765 23.964302 25.771162 24.08167 25.591797 24.197266 C 25.771162 24.08167 25.94765 23.964302 26.121094 23.845703 z M 17.240234 26.197266 C 17.217047 26.214888 17.190786 26.228769 17.166016 26.240234 C 17.190786 26.228769 17.217046 26.214888 17.240234 26.197266 z M 16.833984 26.347656 C 16.839084 26.362816 16.847186 26.376205 16.853516 26.390625 C 16.849816 26.393925 16.839221 26.402897 16.837891 26.404297 C 16.836091 26.406197 16.835284 26.406703 16.833984 26.408203 C 16.840084 26.392853 16.844174 26.378226 16.833984 26.347656 z M 19.222656 27.552734 C 19.224056 27.553018 19.224863 27.552439 19.226562 27.552734 C 19.228362 27.553063 19.230222 27.554288 19.232422 27.554688 L 19.234375 27.554688 C 19.236975 27.558487 19.243941 27.570173 19.244141 27.570312 C 19.225591 27.551762 19.223906 27.552594 19.222656 27.552734 z M 21.285156 36.027344 C 21.106354 36.053824 20.938979 36.083676 20.785156 36.123047 C 20.938979 36.083676 21.106354 36.053824 21.285156 36.027344 z M 19.570312 37.722656 C 19.578802 37.822168 19.59779 37.920719 19.625 38.019531 C 19.59779 37.920719 19.578802 37.822168 19.570312 37.722656 z M 31.726562 40.484375 C 31.924084 40.517845 32.115362 40.546485 32.324219 40.589844 C 32.115362 40.546484 31.924085 40.517844 31.726562 40.484375 z M 32.447266 40.617188 C 32.576054 40.645894 32.718261 40.679202 32.837891 40.708984 C 32.716512 40.678766 32.577529 40.646152 32.447266 40.617188 z " /></svg>

<svg xmlns="http://www.w3.org/2000/svg" xml:space="preserve" width="48" height="48" viewBox="0 0 48 48"><path d="M23.88 5.72c-1.766.005-3.478.425-4.907 1.16-3.419 1.762-5.394 3.786-4.69 9.64.406 3.37 3.242 4.92 5.744 5.74a3.9 3.9 0 0 1-.42 1.052 3.5 3.5 0 0 1-.763.883c-.564.486-1.26.894-1.82 1.725h.001a.1.1 0 0 0-.015.017l.011-.017-.003.002q-.003.001-.006.004-.025.009-.067.02c-.05.014-.175.042-.25.116-.005.006-.077.066-.11.1-.052.056-.128.163-.083.297.153.459.623.653 1.074.76.223.053.462.088.666.12.204.033.385.066.508.106.031.014.05.034.076.078.028.047.094.218.172.295.106.107.328.09.357.09.792 0 1.137-.5 1.584-.955.294-.298.633-.588 1.202-.773 1.098-.24 2.294-.845 3.404-1.54.296.276.587.566.838.88.532.665.869 1.375.748 2.017-.314 1.663-1.739 2.775-3.51 3.604-1.77.828-3.862 1.356-5.422 1.869-3.24 1.065-3.968 5.183-.728 7.886 3.186 2.66 9.184 2.667 11.607 1.096 1.355-.878 2.165-1.158 3.043-1.187.259-.009.478-.013.647-.016.253-.004.251-.004.392-.004l1.246.006a24 24 0 0 0-1.2-.35c-.304-.08-.605-.152-.81-.195-3.845-.798-5.847.117-7.36.393-.379.068-.723.098-1.061.058-.55-.064-1.257-.314-1.92-.676-.664-.361-1.285-.836-1.682-1.335-.265-.333-.428-.674-.455-.993q-.022-.237.062-.466c.058-.155.154-.31.301-.463.139-.145.326-.236.594-.303.214-.054.477-.091.785-.13 1.237-.16 3.176-.357 5.97-2.017 5.518-3.275 5.615-7.622 5.249-8.943-.184-.661-.704-2.774-2.338-4.514 4.196-3.168 4.886-7.08 1.582-11.232-2.2-2.764-5.297-3.911-8.242-3.904m-.597 5.296q.296-.002.612.021c1.461.107 2.453.4 3.113.775.66.376.99.828 1.154 1.288.164.459.155.932.094 1.334-.061.4-.17.71-.207.906-.02.107-.092.274-.21.469a6.6 6.6 0 0 1-.79 1.013 11 11 0 0 1-1.492 1.334 9 9 0 0 1-.33.229c-.458-.042-.941-.06-1.456-.045-1.765.053-3.038-.42-3.86-1.133-.824-.713-1.202-1.669-1.167-2.62.035-.95.486-1.893 1.344-2.573.75-.595 1.815-.991 3.195-.998m1.623 7.572a6 6 0 0 1-.6.316 6 6 0 0 0 .6-.316m1.555.346a9 9 0 0 1 .691.187 8 8 0 0 1 .635.234 7 7 0 0 1-.635-.234 8 8 0 0 0-.691-.187m-2.912.736a29.767 29.767 0 0 1 0 0m-3.365 2.273.252.078q-.127-.037-.252-.078m-3.35 4.404q.009.024.02.044l-.016.013-.004.004c.006-.015.01-.03 0-.06m2.389 1.206h.004l.005.002h.002l.01.015c-.018-.018-.02-.017-.021-.017m12.504 12.931c.197.034.388.062.597.106-.209-.044-.4-.072-.597-.106m.72.133" style="display:inline;stroke-width:.15"/></svg>
